svg/fluentui-system-icons/ic_fluent_person_question_mark_16_regular.svg

<svg width="16" height="16" viewBox="0 0 16 16" fill="none" xmlns="http://www.w3.org/2000/svg">
<path d="M9.5 9C10.3284 9 11 9.67157 11 10.5V11C11 12.9714 9.14049 15 6 15C2.85951 15 1 12.9714 1 11V10.5C1 9.67157 1.67157 9 2.5 9H9.5ZM9.5 10H2.5C2.22386 10 2 10.2239 2 10.5V11C2 12.4376 3.43216 14 6 14C8.56784 14 10 12.4376 10 11V10.5C10 10.2239 9.77614 10 9.5 10ZM13 7C13.4142 7 13.75 7.33579 13.75 7.75C13.75 8.16421 13.4142 8.5 13 8.5C12.5858 8.5 12.25 8.16421 12.25 7.75C12.25 7.33579 12.5858 7 13 7ZM6 2.5C7.51878 2.5 8.75 3.73122 8.75 5.25C8.75 6.76878 7.51878 8 6 8C4.48122 8 3.25 6.76878 3.25 5.25C3.25 3.73122 4.48122 2.5 6 2.5ZM6 3.5C5.0335 3.5 4.25 4.2835 4.25 5.25C4.25 6.2165 5.0335 7 6 7C6.9665 7 7.75 6.2165 7.75 5.25C7.75 4.2835 6.9665 3.5 6 3.5ZM13 1C14.1046 1 15 1.89543 15 3C15 3.73053 14.7882 4.13969 14.246 4.70791L13.982 4.97745C13.6045 5.37102 13.5 5.5831 13.5 6C13.5 6.27614 13.2761 6.5 13 6.5C12.7239 6.5 12.5 6.27614 12.5 6C12.5 5.26947 12.7118 4.86031 13.254 4.29209L13.518 4.02255C13.8955 3.62898 14 3.4169 14 3C14 2.44772 13.5523 2 13 2C12.4477 2 12 2.44772 12 3C12 3.27614 11.7761 3.5 11.5 3.5C11.2239 3.5 11 3.27614 11 3C11 1.89543 11.8954 1 13 1Z" fill="#212121"/>
</svg>

<svg xmlns="http://www.w3.org/2000/svg" width="16" height="16"><path d="M9.5 9a1.5 1.5 0 0 1 1.5 1.5v.5c0 1.971-1.86 4-5 4-3.14 0-5-2.029-5-4v-.5A1.5 1.5 0 0 1 2.5 9h7Zm0 1h-7a.5.5 0 0 0-.5.5v.5c0 1.438 1.432 3 4 3s4-1.562 4-3v-.5a.5.5 0 0 0-.5-.5ZM13 7a.75.75 0 1 1 0 1.5.75.75 0 0 1 0-1.5ZM6 2.5A2.75 2.75 0 1 1 6 8a2.75 2.75 0 0 1 0-5.5Zm0 1A1.75 1.75 0 1 0 6 7a1.75 1.75 0 0 0 0-3.5ZM13 1a2 2 0 0 1 2 2c0 .73-.212 1.14-.754 1.708l-.264.27c-.377.393-.482.605-.482 1.022a.5.5 0 0 1-1 0c0-.73.212-1.14.754-1.708l.264-.27C13.895 3.63 14 3.418 14 3a1 1 0 1 0-2 0 .5.5 0 0 1-1 0 2 2 0 0 1 2-2Z"/></svg>
